icons/folder-outline.svg

<svg xmlns="http://www.w3.org/2000/svg" width="24" height="24" viewBox="0 0 24 24">
    <path fill="#3A3A47" fill-rule="evenodd" d="M8.706 2c.294 0 .47.118.559.177L12 4h8c2 0 2 2 2 2v14.027c-.009.24-.137 1.973-2 1.973H4c-1.862 0-1.99-1.734-2-1.973V4c0-1.862 1.734-1.99 1.973-2h4.733zM9 4H4v16h16V6h-8c-.053 0-.205-.08-.414-.208C10.75 5.281 9 4 9 4z"/>
</svg>

<svg width="24" height="24" viewBox="0 0 24 24" fill="none" xmlns="http://www.w3.org/2000/svg">
<path d="M4 22C2 22 2 20 2 20V4C2 2 4 2 4 2H8.706C9 2 9.176 2.118 9.265 2.177L12 4H20C22 4 22 6 22 6V20C22 20 22 22 20 22H4ZM4 20H20V6H12C11.947 6 11.795 5.92 11.586 5.792C10.75 5.281 9 4 9 4H4V20Z" fill="#3A3A47"/>
</svg>
